X:162
T:Byron Strathspey
M:C
L:1/8
K:A
C:Andrew Rankine
E>A|"A"c2 c2 "E7"B>c d<B |"A"A4-A2 A>G| "D"F>^E F>G "B7"A>B A<F|"E7" E4-E2 E>A|!
"A"c2 c2 "E7"B>c d<B|"F#m/D"A2 a2 f>g a<f|"A"e>f e>c "E7"B>c d>B|"A"A4-A2 a>g|!
"D"f>^e f>g a>g a>f| "A"e4-e2 c2|"E7"B>^A B>c d>c d<e|"A"c4-c2 c>B|!
"B7"A2 A>G A>B A<F|"E7"E>^D E>A "A"c2 e>c|"E7"B>^A B>c d>B G>B|"A"A4-A2||


% <A name="D1X163"></A>

